packages/icons/svg/Outline/auto.svg

<svg fill="none" height="64" viewBox="0 0 64 64" width="64" xmlns="http://www.w3.org/2000/svg"><path d="m40.6426 8c2.1466 0 3.9203-.00015 5.3603.11719 1.5013.12267 2.8796.38727 4.1729 1.0459 2.007 1.02261 3.6385 2.65411 4.6611 4.66111.6587 1.2934.9232 2.6723 1.0459 4.1709.1173 1.4452.1172 3.2157.1172 5.3594v17.2881c0 2.1466.0001 3.9203-.1172 5.3603-.1227 1.5013-.3873 2.8796-1.0459 4.1729-1.0226 2.007-2.6541 3.6385-4.6611 4.6611-1.2934.6587-2.6723.9232-4.1709 1.0459-1.4426.1173-3.2157.1172-5.3594.1172h-17.291c-2.1464 0-3.9195.0001-5.3594-.1172-1.5013-.1227-2.8805-.3872-4.1738-1.0459-2.0069-1.0226-3.6385-2.6542-4.66114-4.6611-.65863-1.2933-.92324-2.6723-1.0459-4.1709-.11463-1.4452-.11426-3.2157-.11426-5.3594v-17.291c0-2.1464-.00011-3.9195.11719-5.3594.12266-1.5013.38723-2.8805 1.0459-4.1738 1.02261-2.0069 2.65421-3.6385 4.66111-4.66114 1.2933-.65863 2.6723-.92324 4.1709-1.0459 1.4453-.11463 3.2186-.11426 5.3623-.11426zm-17.1758 5.333c-2.2853 0-3.8401.0002-5.04.1016-1.168.0933-1.7686.2671-2.1846.4804-1.0032.5113-1.8189 1.3269-2.3301 2.3301-.2133.416-.3871 1.0139-.4805 2.1846-.0986 1.1999-.0986 2.752-.0986 5.0371v17.0664c0 2.2851.0003 3.8372.1016 5.0371.0933 1.168.2671 1.7686.4804 2.1846.5113 1.0032 1.3269 1.8188 2.3301 2.3301.416.2133 1.0139.3871 2.1846.4804 1.1999.1013 2.752.1016 5.0371.1016h17.0664c2.2851 0 3.8372-.0003 5.0371-.1016 1.168-.0933 1.7686-.2671 2.1846-.4804 1.0032-.5113 1.8188-1.3269 2.3301-2.3301.2133-.416.3871-1.0139.4804-2.1846.0987-1.1999.1016-2.752.1016-5.0371v-17.0664c0-2.2851-.0003-3.8372-.1016-5.0371-.0933-1.168-.2671-1.7686-.4804-2.1846-.5113-1.0032-1.3269-1.8188-2.3301-2.3301-.416-.2133-1.0139-.3871-2.1846-.4804-1.1999-.1013-2.752-.1016-5.0371-.1016zm8.5156 5.667c.6799 0 1.2782.1849 1.794.5537.5155.3458.9492.9108 1.3007 1.6943l9.0733 19.3975c.3048.6224.4102 1.1993.3164 1.7295-.0704.507-.3047.9103-.7031 1.21-.3986.2766-.9149.415-1.5479.415-.7969-.0001-1.4179-.1849-1.8633-.5537-.4219-.3688-.7977-.9448-1.1259-1.7285l-1.4571-3.3194h-11.5986l-1.4326 3.3194c-.3517.8068-.7274 1.3948-1.126 1.7636-.3751.3457-.9375.5186-1.6875.5186-.6564 0-1.1962-.1496-1.6182-.4492-.3985-.2997-.6562-.7038-.7734-1.211-.0937-.507.0117-1.072.3164-1.6943l9.0029-19.3975c.375-.7835.8204-1.3485 1.336-1.6943.5158-.3688 1.114-.5537 1.7939-.5537zm-3.997 15.2148h7.9531l-3.9561-9.1982h-.0703z" fill="#000"/></svg>

<svg width="64" height="64" viewBox="0 0 64 64" fill="none" xmlns="http://www.w3.org/2000/svg">
<path d="M40.6426 8C42.7892 8 44.5629 7.99985 46.0029 8.11719C47.5042 8.23986 48.8825 8.50446 50.1758 9.16309C52.1828 10.1857 53.8143 11.8172 54.8369 13.8242C55.4956 15.1176 55.7601 16.4965 55.8828 17.9951C56.0001 19.4403 56 21.2108 56 23.3545V40.6426C56 42.7892 56.0001 44.5629 55.8828 46.0029C55.7601 47.5042 55.4955 48.8825 54.8369 50.1758C53.8143 52.1828 52.1828 53.8143 50.1758 54.8369C48.8824 55.4956 47.5035 55.7601 46.0049 55.8828C44.5623 56.0001 42.7892 56 40.6455 56H23.3545C21.2081 56 19.435 56.0001 17.9951 55.8828C16.4938 55.7601 15.1146 55.4956 13.8213 54.8369C11.8144 53.8143 10.1828 52.1827 9.16016 50.1758C8.50153 48.8825 8.23692 47.5035 8.11426 46.0049C7.99963 44.5597 8 42.7892 8 40.6455V23.3545C8 21.2081 7.99989 19.435 8.11719 17.9951C8.23985 16.4938 8.50442 15.1146 9.16309 13.8213C10.1857 11.8144 11.8173 10.1828 13.8242 9.16016C15.1175 8.50153 16.4965 8.23692 17.9951 8.11426C19.4404 7.99963 21.2137 8 23.3574 8H40.6426ZM23.4668 13.333C21.1815 13.333 19.6267 13.3332 18.4268 13.4346C17.2588 13.5279 16.6582 13.7017 16.2422 13.915C15.239 14.4263 14.4233 15.2419 13.9121 16.2451C13.6988 16.6611 13.525 17.259 13.4316 18.4297C13.333 19.6296 13.333 21.1817 13.333 23.4668V40.5332C13.333 42.8183 13.3333 44.3704 13.4346 45.5703C13.5279 46.7383 13.7017 47.3389 13.915 47.7549C14.4263 48.7581 15.2419 49.5737 16.2451 50.085C16.6611 50.2983 17.259 50.4721 18.4297 50.5654C19.6296 50.6667 21.1817 50.667 23.4668 50.667H40.5332C42.8183 50.667 44.3704 50.6667 45.5703 50.5654C46.7383 50.4721 47.3389 50.2983 47.7549 50.085C48.7581 49.5737 49.5737 48.7581 50.085 47.7549C50.2983 47.3389 50.4721 46.741 50.5654 45.5703C50.6641 44.3704 50.667 42.8183 50.667 40.5332V23.4668C50.667 21.1817 50.6667 19.6296 50.5654 18.4297C50.4721 17.2617 50.2983 16.6611 50.085 16.2451C49.5737 15.2419 48.7581 14.4263 47.7549 13.915C47.3389 13.7017 46.741 13.5279 45.5703 13.4346C44.3704 13.3333 42.8183 13.333 40.5332 13.333H23.4668ZM31.9824 19C32.6623 19 33.2606 19.1849 33.7764 19.5537C34.2919 19.8995 34.7256 20.4645 35.0771 21.248L44.1504 40.6455C44.4552 41.2679 44.5606 41.8448 44.4668 42.375C44.3964 42.882 44.1621 43.2853 43.7637 43.585C43.3651 43.8616 42.8488 44 42.2158 44C41.4189 43.9999 40.7979 43.8151 40.3525 43.4463C39.9306 43.0775 39.5548 42.5015 39.2266 41.7178L37.7695 38.3984H26.1709L24.7383 41.7178C24.3866 42.5246 24.0109 43.1126 23.6123 43.4814C23.2372 43.8271 22.6748 44 21.9248 44C21.2684 44 20.7286 43.8504 20.3066 43.5508C19.9081 43.2511 19.6504 42.847 19.5332 42.3398C19.4395 41.8328 19.5449 41.2678 19.8496 40.6455L28.8525 21.248C29.2275 20.4645 29.6729 19.8995 30.1885 19.5537C30.7043 19.1849 31.3025 19 31.9824 19ZM27.9854 34.2148H35.9385L31.9824 25.0166H31.9121L27.9854 34.2148Z" fill="black"/>
</svg>
